pro/src/icons/stroke-desk.svg

<svg width="48" height="48" viewBox="0 0 48 48" fill="none" xmlns="http://www.w3.org/2000/svg">
<path id="icon" fill="currentColor" fill-rule="evenodd" clip-rule="evenodd" d="M4 11.64C4 9.53593 5.52386 8.00024 7.19961 8L32.3392 8.02C32.8915 8.02044 33.3396 7.57308 33.34 7.0208C33.3404 6.46851 32.8931 6.02044 32.3408 6.02L7.2 6C4.2359 6 2 8.62423 2 11.64V16.11C2 17.4564 2.9045 18.6174 4.17704 18.9891C6.09056 19.5615 7.6 21.5387 7.6 24C7.6 26.4614 6.09042 28.4387 4.17678 29.0109C2.90727 29.3819 2 30.5308 2 31.89V36.36C2 39.3758 4.2359 42 7.2 42H40.8C43.7641 42 46 39.3758 46 36.36V31.89C46 30.5438 45.0957 29.3828 43.8233 29.011C41.9096 28.4387 40.4 26.4614 40.4 24C40.4 21.5365 41.9013 19.5613 43.8224 18.9893C45.0923 18.6186 46 17.4695 46 16.11V11.64C46 8.62423 43.7641 6 40.8 6C40.2477 6 39.8 6.44772 39.8 7C39.8 7.55228 40.2477 8 40.8 8C42.4759 8 44 9.53577 44 11.64V16.11C44 16.5493 43.7092 16.9394 43.2609 17.0697L43.2552 17.0714C40.3974 17.9204 38.4 20.7445 38.4 24C38.4 27.2574 40.409 30.0795 43.2541 30.9283L43.2609 30.9302C43.7063 31.0597 44 31.4577 44 31.89V36.36C44 38.4642 42.4759 40 40.8 40H7.2C5.5241 40 4 38.4642 4 36.36V31.89C4 31.4507 4.2908 31.0606 4.73915 30.9303L4.74587 30.9283C7.59097 30.0795 9.6 27.2574 9.6 24C9.6 20.7426 7.59097 17.9205 4.74588 17.0717L4.73914 17.0697C4.29369 16.9403 4 16.5423 4 16.11V11.64ZM29 16.0303C29 15.478 28.5523 15.0303 28 15.0303C27.4477 15.0303 27 15.478 27 16.0303V32.0803C27 32.6326 27.4477 33.0803 28 33.0803C28.5523 33.0803 29 32.6326 29 32.0803V16.0303Z" />
</svg>

<svg xmlns="http://www.w3.org/2000/svg" width="48" height="48" fill="none"><path id="icon" fill="currentColor" fill-rule="evenodd" d="M4 11.64C4 9.536 5.524 8 7.2 8l25.14.02a1 1 0 1 0 0-2L7.2 6C4.236 6 2 8.624 2 11.64v4.47a3.01 3.01 0 0 0 2.177 2.88C6.091 19.561 7.6 21.538 7.6 24s-1.51 4.439-3.423 5.01A3 3 0 0 0 2 31.89v4.47C2 39.376 4.236 42 7.2 42h33.6c2.964 0 5.2-2.624 5.2-5.64v-4.47a3.01 3.01 0 0 0-2.177-2.879C41.91 28.439 40.4 26.461 40.4 24c0-2.463 1.501-4.439 3.422-5.01A3 3 0 0 0 46 16.11v-4.47C46 8.624 43.764 6 40.8 6a1 1 0 1 0 0 2c1.676 0 3.2 1.536 3.2 3.64v4.47c0 .44-.29.83-.74.96l-.005.001c-2.858.85-4.855 3.673-4.855 6.929s2.009 6.08 4.854 6.928l.007.002c.445.13.739.528.739.96v4.47c0 2.104-1.524 3.64-3.2 3.64H7.2C5.524 40 4 38.464 4 36.36v-4.47c0-.44.29-.83.74-.96l.006-.002C7.59 30.08 9.6 27.258 9.6 24s-2.009-6.08-4.854-6.928l-.007-.002A1.01 1.01 0 0 1 4 16.11zm25 4.39a1 1 0 1 0-2 0v16.05a1 1 0 1 0 2 0z" clip-rule="evenodd"/></svg>
